X: 24
T: No_121_Southern_Dance_Song.krn
%%abc-version 2.0
%%abcx-abcm2ps-target-version 5.9.1 (29 Sep 2008)
%%abc-creator hum2abc beta
%%abcx-conversion-date 2020/08/10 18:54:57
%%gracespace 0 6 6
%%humdrum-veritas 2963763654
%%humdrum-veritas-data 1784552173
%%linebreak <none>
%%barnumbers 0
L: 1/8
M: 3/4
%%staves {1 2}
V: 1 clef=bass
V: 2 clef=bass
K: Ab
[V:1] [K:clef=bass][M:3/4]EB,/B,/E3B, ||  
[V:2] [K:clef=bass][M:3/4](3!accent!G,, z G,, (3!accent!G,, z G,, (3!accent!G,, z G,, ||  
[V:1] [M:2/4]B,A,/A,/B,2 ||  
[V:2] [M:2/4]z4 ||  
[V:1] [M:3/4]B,B,/B,/B,3A, ||  
[V:2] [M:3/4]z6 ||  
[V:1] [M:2/4]A,E,/E,/A,2 ||  
[V:2] [M:2/4]z4 ||  
[V:1] [M:3/4](3A,A,A, (3A,A,-A,A,2 ||  
[V:2] [M:3/4]z6 ||  
[V:1] [M:2/4]A,A,A,2 ||  
[V:2] [M:2/4]z4 ||  
[V:1] [M:3/4](3A,A,A, (3A,A,-A,A,2 ||  
[V:2] [M:3/4]z6 ||  
[V:1] [M:2/4]A,A,A,2 ||  
[V:2] [M:2/4]z4 ||  
[V:1] [M:3/4](3A,A,A, (3A,A,-A,A,2 ||  
[V:2] [M:3/4]z6 ||  
[V:1] [M:2/4]A,A,A,2 |]  
[V:2] [M:2/4]z4 |]  
!!!SOCIAL_FUNCTION:	southern dance songs
!!!REG: Great Lakes
!!!PDT:	1913
!!!OTL: No_122_Southern_Dance_Song.krn
**kern	**kern
*staff2	*staff1
=1-	=1-
*clefF4	*clefF4
*k[b-e-a-d-g-]	*k[b-e-a-d-g-]
*M3/8	*M3/8
12GG-^/	16e-\LL
.	16e-\JJ
12r	.
.	4e-\
12GG-/	.
8r	.
=2||	=2||
*M2/8	*M2/8
4r	8e-\L
.	8B-\J
=3	=3
4r	4B-\
=4||	=4||
*M3/8	*M3/8
4.r	16d-\LL
.	16d-\JJ
.	4d-\
=5||	=5||
*M2/8	*M2/8
4r	8d-\L
.	8d-\J
=6	=6
4r	4B-\
=7||	=7||
*M3/8	*M3/8
4.r	16A-\LL
.	16A-\JJ
.	4A-\
=8||	=8||
*M2/8	*M2/8
4r	8A-\L
.	8A-\J
=9	=9
4r	4F\
=10	=10
4r	8A-\L
.	8A-\J
=11	=11
4r	4B-\
=12	=12||
*	*M3/8
=	16d-\LL
*M3/8	*
4.r	.
.	16d-\JJ
.	4B-\
.	=13||
*	*M2/8
=13||	8B-\L
*M2/8	*
4r	.
.	8A-\J
.	=14
=14	4F\
4r	.
.	=15
=15	8A-\L
4r	.
.	8A-\J
.	=16
=16	4B-\
4r	.
.	=17||
*	*M3/8
=17||	16d-\LL
*M3/8	*
4.r	.
.	16d-\JJ
.	4B-\
.	=18||
*	*M2/8
=18||	8B-\L
*M2/8	*
4r	.
.	8A-\J
.	=19
=19	4F\
4r	.
.	=20
=20	8A-\L
4r	.
.	8A-\J
.	=21
=21	4B-\
4r	.
.	=22||
*	*M3/8
=22||	16d-\LL
*M3/8	*
4.r	.
.	16d-\JJ
.	4B-\
.	=23||
*	*M2/8
=23||	8B-\L
*M2/8	*
4r	.
.	8A-\J
.	=24
=24	4F\
4r	.
.	=25
=25	8A-\L
4r	.
.	8A-\J
.	=26
=26	4B-\
4r	.
.	==
*	*-
==	==


